assets/img/svg/decor-arrow.svg

<svg width="30" height="30" viewBox="0 0 30 30" fill="none" xmlns="http://www.w3.org/2000/svg">
<path d="M29.25 15C29.25 22.8701 22.8701 29.25 15 29.25C7.12994 29.25 0.75 22.8701 0.75 15C0.75 7.12994 7.12994 0.75 15 0.75C22.8701 0.75 29.25 7.12994 29.25 15Z" stroke="#A71A0A" stroke-width="1.5"/>
<path d="M11.039 7.17499C10.7351 7.31596 10.5973 7.66995 10.7257 7.98635C10.7602 8.07093 11.747 9.07339 14.3032 11.6171L17.8369 15.1351L14.3032 18.65C11.7438 21.2 10.7602 22.1993 10.7257 22.2839C10.7006 22.3497 10.6787 22.4594 10.6787 22.5283C10.6787 22.9794 11.1361 23.2833 11.5402 23.0953C11.7188 23.0107 19.1871 15.5769 19.2654 15.4014C19.3406 15.2417 19.3406 15.0286 19.2654 14.8689C19.1871 14.6934 11.7188 7.25957 11.5402 7.17499C11.3804 7.0998 11.1987 7.0998 11.039 7.17499Z" fill="#A71A0A"/>
</svg>

<svg width="30" height="30" fill="none" xmlns="http://www.w3.org/2000/svg"><path d="M29.25 15c0 7.87-6.38 14.25-14.25 14.25S.75 22.87.75 15 7.13.75 15 .75 29.25 7.13 29.25 15Z" stroke="#A71A0A" stroke-width="1.5"/><path d="M11.039 7.175a.628.628 0 0 0-.313.811c.034.085 1.021 1.087 3.577 3.631l3.534 3.518-3.534 3.515c-2.56 2.55-3.543 3.55-3.577 3.634a.823.823 0 0 0-.047.244c0 .451.457.755.861.567.179-.084 7.647-7.518 7.725-7.694a.657.657 0 0 0 0-.532c-.078-.176-7.546-7.61-7.725-7.694a.585.585 0 0 0-.501 0Z" fill="#A71A0A"/></svg>
